img/slide12/2002.svg

<svg height="230" viewBox="0 0 72 230" width="72" xmlns="http://www.w3.org/2000/svg"><path d="m-32 150v-12.623331h-25.4288793v-.249473l13.1357759-13.671117c4.3620689-4.557039 7.3775141-8.598501 9.0463362-12.124385 1.668822-3.525885 2.5032327-7.351136 2.5032327-11.4757558 0-3.1599904-.6030893-6.0705086-1.8092672-8.7315531s-2.8336928-4.8647224-4.8825431-6.611033c-2.0488504-1.7463106-4.4033762-3.1017806-7.0635776-4.066409-2.6602014-.9646285-5.460848-1.4469431-8.4019397-1.4469431-5.5186779 0-10.1946841 1.2057862-14.0280172 3.6173577s-6.85704 5.6297725-9.0711207 9.6546029l9.9137931 7.1349263c3.0402296-5.0559848 7.0883621-7.5839776 12.1443966-7.5839776 1.7844827 0 3.3789514.415788 4.7834051 1.2473648 1.4044538.8315767 2.5032328 1.9708362 3.2963362 3.4177793.7931035 1.4469431 1.1896552 3.0685172 1.1896552 4.8647226 0 2.627782-.7600572 5.180721-2.2801724 7.658819s-3.8663793 5.413563-7.0387931 8.806395l-21.7112069 23.0513.1487069 9.13071zm36.47493163 1c5.61531447 0 10.51200267-1.508334 14.69006377-4.525 4.1780612-3.016666 7.3617439-7.225 9.5510484-12.625 2.1893044-5.4 3.2839562-11.683334 3.2839562-18.85 0-5.6-.6684896-10.666666-2.0054695-15.2-1.3369799-4.5333336-3.2087511-8.3166664-5.6153145-11.35-2.4065633-3.0333336-5.3061377-5.3666664-8.6987237-7-3.3925861-1.6333336-7.12777302-2.45-11.20556067-2.45-4.21148587 0-8.03858984.8666664-11.48131267 2.6-3.44272286 1.7333336-6.33394076 4.175-8.67365546 7.325-2.3397146 3.15-4.1446371 6.95-5.4147675 11.4s-1.905196 9.341666-1.905196 14.675c0 5.6.6684896 10.666666 2.0054695 15.2s3.2087511 8.316666 5.6153145 11.35c2.4065633 3.033334 5.297782 5.366666 8.67365538 7 3.37587334 1.633334 7.1027046 2.45 11.18049225 2.45zm.0497363-13.5c-2.69702745 0-5.03225806-.931309-7.0056926-2.793926-1.97343453-1.862617-3.46995547-4.5235-4.48956357-7.982647-1.01960809-3.459146-1.52941176-7.533622-1.52941176-12.223427 0-7.350687 1.15939279-13.021692 3.47817837-17.0130152s5.50094877-5.9869848 9.54648956-5.9869848c4.07843163 0 7.26059477 2.0455531 9.54648957 6.1366594 2.2858947 4.0911066 3.4288425 9.7122206 3.4288425 16.8633406 0 7.350687-1.1429478 13.021692-3.4288425 17.013015-2.2858948 3.991323-5.46805794 5.986985-9.54648957 5.986985zm64.95026367 13.5c5.6153145 0 10.5120027-1.508334 14.6900638-4.525 4.1780612-3.016666 7.3617439-7.225 9.5510484-12.625 2.1893044-5.4 3.2839562-11.683334 3.2839562-18.85 0-5.6-.6684896-10.666666-2.0054695-15.2-1.3369799-4.5333336-3.2087511-8.3166664-5.6153145-11.35-2.4065633-3.0333336-5.3061377-5.3666664-8.6987237-7-3.3925861-1.6333336-7.127773-2.45-11.2055607-2.45-4.2114858 0-8.0385898.8666664-11.4813126 2.6-3.4427229 1.7333336-6.3339408 4.175-8.6736555 7.325-2.3397146 3.15-4.1446371 6.95-5.4147675 11.4s-1.905196 9.341666-1.905196 14.675c0 5.6.6684896 10.666666 2.0054695 15.2s3.2087511 8.316666 5.6153145 11.35c2.4065633 3.033334 5.297782 5.366666 8.6736554 7 3.3758733 1.633334 7.1027046 2.45 11.1804922 2.45zm.0497363-13.5c-2.6970274 0-5.032258-.931309-7.0056926-2.793926-1.9734345-1.862617-3.4699554-4.5235-4.4895635-7.982647-1.0196081-3.459146-1.5294118-7.533622-1.5294118-12.223427 0-7.350687 1.1593928-13.021692 3.4781784-17.0130152 2.3187855-3.9913232 5.5009487-5.9869848 9.5464895-5.9869848 4.0784317 0 7.2605948 2.0455531 9.5464896 6.1366594 2.2858947 4.0911066 3.4288425 9.7122206 3.4288425 16.8633406 0 7.350687-1.1429478 13.021692-3.4288425 17.013015-2.2858948 3.991323-5.4680579 5.986985-9.5464896 5.986985zm81.4753321 12.5v-12.623331h-25.428879v-.249473l13.135776-13.671117c4.362069-4.557039 7.377514-8.598501 9.046336-12.124385 1.668822-3.525885 2.503233-7.351136 2.503233-11.4757558 0-3.1599904-.60309-6.0705086-1.809268-8.7315531s-2.833693-4.8647224-4.882543-6.611033-4.403376-3.1017806-7.063577-4.066409c-2.660202-.9646285-5.460848-1.4469431-8.40194-1.4469431-5.518678 0-10.194684 1.2057862-14.028017 3.6173577s-6.85704 5.6297725-9.071121 9.6546029l9.913793 7.1349263c3.04023-5.0559848 7.088362-7.5839776 12.144397-7.5839776 1.784482 0 3.378951.415788 4.783405 1.2473648 1.404454.8315767 2.503233 1.9708362 3.296336 3.4177793s1.189655 3.0685172 1.189655 4.8647226c0 2.627782-.760057 5.180721-2.280172 7.658819s-3.86638 5.413563-7.038793 8.806395l-21.711207 23.0513.148707 9.13071z" fill="#fff" transform="matrix(0 -1 1 0 -78.5 151.5)"/></svg>

<?xml version="1.0" encoding="UTF-8"?>
<svg width="72px" height="230px" viewBox="0 0 72 230" version="1.1" xmlns="http://www.w3.org/2000/svg" xmlns:xlink="http://www.w3.org/1999/xlink">
    <title>2002</title>
    <g id="2002" stroke="none" stroke-width="1" fill="none" fill-rule="evenodd">
        <path d="M-32,150 L-32,137.376669 L-57.4288793,137.376669 L-57.4288793,137.127196 L-44.2931034,123.456079 C-39.9310345,118.89904 -36.9155893,114.857578 -35.2467672,111.331694 C-33.5779452,107.805809 -32.7435345,103.980558 -32.7435345,99.8559382 C-32.7435345,96.6959478 -33.3466238,93.7854296 -34.5528017,91.1243851 C-35.7589796,88.4633406 -37.3864945,86.2596627 -39.4353448,84.5133521 C-41.4841952,82.7670415 -43.838721,81.4115715 -46.4989224,80.4469431 C-49.1591238,79.4823146 -51.9597704,79 -54.9008621,79 C-60.41954,79 -65.0955462,80.2057862 -68.9288793,82.6173577 C-72.7622124,85.0289292 -75.7859193,88.2471302 -78,92.2719606 L-68.0862069,99.4068869 C-65.0459773,94.3509021 -60.9978448,91.8229093 -55.9418103,91.8229093 C-54.1573276,91.8229093 -52.5628589,92.2386973 -51.1584052,93.0702741 C-49.7539514,93.9018508 -48.6551724,95.0411103 -47.862069,96.4880534 C-47.0689655,97.9349965 -46.6724138,99.5565706 -46.6724138,101.352776 C-46.6724138,103.980558 -47.432471,106.533497 -48.9525862,109.011595 C-50.4727014,111.489693 -52.8189655,114.425158 -55.9913793,117.81799 L-77.7025862,140.86929 L-77.5538793,150 L-32,150 Z M4.47493163,151 C10.0902461,151 14.9869343,149.491666 19.1649954,146.475 C23.3430566,143.458334 26.5267393,139.25 28.7160438,133.85 C30.9053482,128.45 32,122.166666 32,115 C32,109.4 31.3315104,104.333334 29.9945305,99.8 C28.6575506,95.2666664 26.7857794,91.4833336 24.379216,88.45 C21.9726527,85.4166664 19.0730783,83.0833336 15.6804923,81.45 C12.2879062,79.8166664 8.55271928,79 4.47493163,79 C0.263445761,79 -3.56365821,79.8666664 -7.00638104,81.6 C-10.4491039,83.3333336 -13.3403218,85.775 -15.6800365,88.925 C-18.0197511,92.075 -19.8246736,95.875 -21.094804,100.325 C-22.3649344,104.775 -23,109.666666 -23,115 C-23,120.6 -22.3315104,125.666666 -20.9945305,130.2 C-19.6575506,134.733334 -17.7857794,138.516666 -15.379216,141.55 C-12.9726527,144.583334 -10.081434,146.916666 -6.70556062,148.55 C-3.32968728,150.183334 0.39714398,151 4.47493163,151 Z M4.52466793,137.5 C1.82764048,137.5 -0.507590133,136.568691 -2.48102467,134.706074 C-4.4544592,132.843457 -5.95098014,130.182574 -6.97058824,126.723427 C-7.99019633,123.264281 -8.5,119.189805 -8.5,114.5 C-8.5,107.149313 -7.34060721,101.478308 -5.02182163,97.4869848 C-2.70303605,93.4956616 0.479127135,91.5 4.52466793,91.5 C8.60309956,91.5 11.7852627,93.5455531 14.0711575,97.6366594 C16.3570522,101.727766 17.5,107.34888 17.5,114.5 C17.5,121.850687 16.3570522,127.521692 14.0711575,131.513015 C11.7852627,135.504338 8.60309956,137.5 4.52466793,137.5 Z M69.4749316,151 C75.0902461,151 79.9869343,149.491666 84.1649954,146.475 C88.3430566,143.458334 91.5267393,139.25 93.7160438,133.85 C95.9053482,128.45 97,122.166666 97,115 C97,109.4 96.3315104,104.333334 94.9945305,99.8 C93.6575506,95.2666664 91.7857794,91.4833336 89.379216,88.45 C86.9726527,85.4166664 84.0730783,83.0833336 80.6804923,81.45 C77.2879062,79.8166664 73.5527193,79 69.4749316,79 C65.2634458,79 61.4363418,79.8666664 57.993619,81.6 C54.5508961,83.3333336 51.6596782,85.775 49.3199635,88.925 C46.9802489,92.075 45.1753264,95.875 43.905196,100.325 C42.6350656,104.775 42,109.666666 42,115 C42,120.6 42.6684896,125.666666 44.0054695,130.2 C45.3424494,134.733334 47.2142206,138.516666 49.620784,141.55 C52.0273473,144.583334 54.918566,146.916666 58.2944394,148.55 C61.6703127,150.183334 65.397144,151 69.4749316,151 Z M69.5246679,137.5 C66.8276405,137.5 64.4924099,136.568691 62.5189753,134.706074 C60.5455408,132.843457 59.0490199,130.182574 58.0294118,126.723427 C57.0098037,123.264281 56.5,119.189805 56.5,114.5 C56.5,107.149313 57.6593928,101.478308 59.9781784,97.4869848 C62.2969639,93.4956616 65.4791271,91.5 69.5246679,91.5 C73.6030996,91.5 76.7852627,93.5455531 79.0711575,97.6366594 C81.3570522,101.727766 82.5,107.34888 82.5,114.5 C82.5,121.850687 81.3570522,127.521692 79.0711575,131.513015 C76.7852627,135.504338 73.6030996,137.5 69.5246679,137.5 Z M151,150 L151,137.376669 L125.571121,137.376669 L125.571121,137.127196 L138.706897,123.456079 C143.068966,118.89904 146.084411,114.857578 147.753233,111.331694 C149.422055,107.805809 150.256466,103.980558 150.256466,99.8559382 C150.256466,96.6959478 149.653376,93.7854296 148.447198,91.1243851 C147.24102,88.4633406 145.613505,86.2596627 143.564655,84.5133521 C141.515805,82.7670415 139.161279,81.4115715 136.501078,80.4469431 C133.840876,79.4823146 131.04023,79 128.099138,79 C122.58046,79 117.904454,80.2057862 114.071121,82.6173577 C110.237788,85.0289292 107.214081,88.2471302 105,92.2719606 L114.913793,99.4068869 C117.954023,94.3509021 122.002155,91.8229093 127.05819,91.8229093 C128.842672,91.8229093 130.437141,92.2386973 131.841595,93.0702741 C133.246049,93.9018508 134.344828,95.0411103 135.137931,96.4880534 C135.931034,97.9349965 136.327586,99.5565706 136.327586,101.352776 C136.327586,103.980558 135.567529,106.533497 134.047414,109.011595 C132.527299,111.489693 130.181034,114.425158 127.008621,117.81799 L105.297414,140.86929 L105.446121,150 L151,150 Z" fill="#FFFFFF" fill-rule="nonzero" transform="translate(36.500000, 115.000000) rotate(-90.000000) translate(-36.500000, -115.000000) "></path>
    </g>
</svg>
